X: 37989
T: Speaker's Corner, The
R: slip jig
M: 9/8
K: Gmajor
|:BGG BGA Bcd|BGG Bcd cAF|
BGG BGA Bcd|fed cAB cBA:|
|:B2g gag fdB|c2a aba fdc|
B2g gag fed|fed cAB cBA:|

